public/assets/apply/stepper/llp.svg

<svg width="76" height="74" viewBox="0 0 76 74" fill="none" xmlns="http://www.w3.org/2000/svg">
<path d="M36.9305 0.375784C36.5547 0.766019 36.5547 0.780472 36.5547 2.9918C36.5547 5.14532 36.5691 5.23203 36.9016 5.56446C37.3207 5.96914 37.8555 6.14258 38.3758 6.0125C38.5781 5.95469 38.9105 5.75235 39.0984 5.56446C39.4309 5.23203 39.4453 5.14532 39.4453 2.9918C39.4453 0.780472 39.4453 0.766019 39.0695 0.375784C38.766 0.072269 38.5492 3.33786e-06 38 3.33786e-06C37.4508 3.33786e-06 37.234 0.072269 36.9305 0.375784Z" fill="#4A4A4A"/>
<path d="M24.3129 4.00353C24.1395 4.03244 23.8359 4.23478 23.6336 4.43712C23.3445 4.72619 23.2578 4.95744 23.2578 5.4633V6.12814L26.0906 8.97541C28.1285 11.0277 29.0535 11.8516 29.357 11.9094C30.0219 12.0395 30.7445 11.6637 31.0047 11.0422C31.4094 10.0883 31.2359 9.82814 28.5477 7.11095C27.1891 5.72345 25.9172 4.48048 25.7148 4.35041C25.2957 4.04689 24.7754 3.91681 24.3129 4.00353Z" fill="#4A4A4A"/>
<path d="M50.8633 4.00348C50.3141 4.10465 44.9953 9.48121 44.8652 10.0593C44.7207 10.7531 45.1109 11.5336 45.718 11.7793C46.6574 12.1695 46.8742 12.025 49.9094 8.97535L52.7422 6.12809V5.46324C52.7422 4.94293 52.6555 4.72613 52.3664 4.42262C52.1496 4.22027 51.9039 4.04684 51.7883 4.04684C51.6871 4.04684 51.5281 4.01793 51.4125 3.98902C51.3113 3.96012 51.0656 3.97457 50.8633 4.00348Z" fill="#4A4A4A"/>
<path d="M37.0461 8.29605C36.4391 8.57066 36.2078 8.91753 34.8348 11.6636C33.9242 13.4992 33.5918 14.0339 33.3461 14.0918C33.1582 14.1207 32.0453 14.2941 30.8457 14.4531C29.6605 14.6265 28.4465 14.8289 28.143 14.9011C27.4926 15.0746 26.7699 15.855 26.6398 16.5632C26.452 17.575 26.7266 18.0085 28.9379 20.2054L31.0191 22.2867L30.6145 24.6136C30.123 27.4031 30.0797 28.2558 30.3977 28.8773C30.8312 29.7156 31.9297 30.1636 32.898 29.889C33.1727 29.8168 34.4445 29.1953 35.702 28.5304L38 27.3164L40.3125 28.5449C41.5988 29.2242 42.8996 29.8312 43.2176 29.9035C44.2004 30.1203 45.1832 29.7011 45.6023 28.8773C45.9203 28.2558 45.877 27.4031 45.3855 24.6136L44.9809 22.2867L47.0621 20.2054C49.2734 18.0085 49.548 17.575 49.3602 16.5632C49.2301 15.855 48.5074 15.0746 47.857 14.9011C47.5535 14.8144 46.3105 14.6265 45.082 14.4531C43.8535 14.2796 42.7262 14.1062 42.5816 14.0484C42.4227 13.9761 41.7578 12.8632 40.9918 11.3457C40.1535 9.72691 39.5176 8.65738 39.2719 8.48394C38.7805 8.12261 37.6387 8.02144 37.0461 8.29605ZM39.084 14.3519C39.691 15.5804 40.2402 16.491 40.457 16.65C40.7027 16.8234 41.5988 17.0113 43.102 17.2281L45.3711 17.5605L43.7957 19.1503C42.9285 20.0175 42.148 20.8847 42.0613 21.0582C41.8301 21.5062 41.859 22.0843 42.2348 24.2812L42.5672 26.2468L40.5004 25.1918C39.2719 24.5703 38.2602 24.1367 38 24.1367C37.7398 24.1367 36.7281 24.5703 35.4996 25.1918L33.4328 26.2468L33.7652 24.2812C34.1555 21.9976 34.1699 21.5062 33.8953 20.9859C33.7797 20.7691 32.9992 19.9164 32.1609 19.0781L30.6289 17.5605L32.7824 17.257C35.7309 16.8234 35.7164 16.8378 36.9594 14.3085C37.4941 13.2101 37.9566 12.2996 38 12.2996C38.0434 12.2996 38.5348 13.2246 39.084 14.3519Z" fill="#4A4A4A"/>
<path d="M35.6875 31.7391C32.6234 32.534 30.0363 35.15 29.2559 38.2285C28.9812 39.3414 28.9812 41.6105 29.2559 42.709C29.6316 44.1398 30.4555 45.6285 31.4527 46.6691C31.9441 47.1895 32.3344 47.623 32.3199 47.6375C32.3055 47.652 31.9297 47.8398 31.4961 48.0566C29.4438 49.0973 27.4203 50.9039 26.1484 52.8262C25.7582 53.4477 25.4258 54.0113 25.4258 54.0691C25.4258 54.1414 24.9344 53.7801 24.3273 53.2887C23.7203 52.7828 22.7086 52.0891 22.0582 51.7422C21.4078 51.3953 20.8441 51.1062 20.8297 51.0773C20.8008 51.0629 21.0465 50.7883 21.3934 50.4848C22.2027 49.7621 23.2867 48.0711 23.6914 46.9438C24.1395 45.6863 24.2551 43.0848 23.9227 41.7695C23.1277 38.5898 20.5551 35.9883 17.4043 35.1934C16.3059 34.9188 14.0223 34.9188 12.9238 35.1934C9.80195 35.9883 7.21484 38.5754 6.41992 41.6973C6.14531 42.8102 6.14531 45.0793 6.41992 46.1777C6.7957 47.6086 7.61953 49.0973 8.6168 50.1379C9.1082 50.6582 9.49844 51.0918 9.48398 51.1062C9.46953 51.1207 9.09375 51.3086 8.66016 51.5254C5.26367 53.2309 2.67656 56.3672 1.47695 60.2262L1.08672 61.498L1.02891 67.366L0.985546 73.2195L1.37578 73.6098L1.76601 74H38H74.234L74.6242 73.6098L75.0145 73.2195L74.9711 67.366L74.9133 61.498L74.523 60.2262C73.3234 56.3672 70.7363 53.2309 67.3398 51.5254C66.9063 51.3086 66.5305 51.1207 66.516 51.1062C66.5016 51.0918 66.8918 50.6582 67.3832 50.1379C68.3805 49.0973 69.2043 47.6086 69.5801 46.1777C69.8547 45.0793 69.8547 42.8102 69.5801 41.6973C68.7852 38.5754 66.198 35.9883 63.0762 35.1934C61.9777 34.9188 59.6941 34.9188 58.5957 35.1934C55.4449 35.9883 52.8723 38.5898 52.0773 41.7695C51.7449 43.0848 51.8605 45.6863 52.3086 46.9438C52.7133 48.0711 53.7973 49.7621 54.6066 50.4848C54.9535 50.7883 55.1992 51.0629 55.1703 51.0773C55.1559 51.1062 54.5922 51.3953 53.9418 51.7422C53.2914 52.0891 52.2797 52.7828 51.6727 53.2887C51.0656 53.7801 50.5742 54.1414 50.5742 54.0691C50.5742 54.0113 50.2418 53.4477 49.8516 52.8262C48.5797 50.9039 46.5563 49.0973 44.5039 48.0566C44.0703 47.8398 43.6945 47.652 43.6801 47.6375C43.6656 47.623 44.0559 47.1895 44.5473 46.6691C45.5445 45.6285 46.3684 44.1398 46.7441 42.709C47.0187 41.6105 47.0187 39.3414 46.7441 38.2285C45.9492 35.1066 43.3621 32.5195 40.2402 31.7246C39.1562 31.45 36.757 31.45 35.6875 31.7391ZM40.4715 35.0633C41.7 35.6559 42.8129 36.7687 43.4055 37.9973C43.8246 38.8789 43.8535 39.0668 43.8535 40.4688C43.8535 41.8707 43.8246 42.0586 43.4055 42.9402C42.8129 44.1687 41.7 45.2816 40.4715 45.8742C39.5898 46.2934 39.402 46.3223 38 46.3223C36.598 46.3223 36.4102 46.2934 35.5285 45.8742C34.3 45.2816 33.1871 44.1687 32.5945 42.9402C32.1754 42.0586 32.1465 41.8707 32.1465 40.4688C32.1465 39.0668 32.1754 38.8789 32.5945 37.9973C33.1004 36.9277 34.2277 35.7137 35.1527 35.2512C36.3379 34.6441 36.7426 34.543 38.1445 34.5863C39.3441 34.6152 39.6332 34.673 40.4715 35.0633ZM17.6355 38.532C18.8641 39.1246 19.977 40.2375 20.5695 41.466C20.9887 42.3477 21.0176 42.5355 21.0176 43.9375C21.0176 45.3395 20.9887 45.5273 20.5695 46.409C19.977 47.6375 18.8641 48.7504 17.6355 49.343C16.7539 49.7621 16.566 49.791 15.1641 49.791C13.7621 49.791 13.5742 49.7621 12.6926 49.343C11.4641 48.7504 10.3512 47.6375 9.75859 46.409C9.33945 45.5273 9.31055 45.3395 9.31055 43.9375C9.31055 42.5355 9.33945 42.3477 9.75859 41.466C10.2645 40.3965 11.3918 39.1824 12.3168 38.7199C13.502 38.1129 13.9066 38.0117 15.3086 38.0551C16.5082 38.084 16.7973 38.1418 17.6355 38.532ZM63.3074 38.532C64.5359 39.1246 65.6488 40.2375 66.2414 41.466C66.6605 42.3477 66.6895 42.5355 66.6895 43.9375C66.6895 45.3395 66.6605 45.5273 66.2414 46.409C65.6488 47.6375 64.5359 48.7504 63.3074 49.343C62.4258 49.7621 62.2379 49.791 60.8359 49.791C59.434 49.791 59.2461 49.7621 58.3645 49.343C57.1359 48.7504 56.023 47.6375 55.4305 46.409C55.0113 45.5273 54.9824 45.3395 54.9824 43.9375C54.9824 42.5355 55.0113 42.3477 55.4305 41.466C55.9363 40.3965 57.0637 39.1824 57.9887 38.7199C59.1738 38.1129 59.5785 38.0117 60.9805 38.0551C62.1801 38.084 62.4691 38.1418 63.3074 38.532ZM40.6883 49.8633C44.6484 50.8605 47.7848 53.9969 48.8543 58.0293C49.1434 59.0988 49.1723 59.6336 49.2445 65.1402L49.3023 71.1094H47.9293H46.5418L46.4984 68.5945C46.4551 66.2965 46.4262 66.0363 46.1516 65.6605C45.5879 64.909 44.5039 64.8656 43.8391 65.5738C43.4922 65.9352 43.4922 66.0074 43.4922 68.5223V71.1094H35.0949H26.6977L26.7555 65.1402C26.8277 59.6336 26.8566 59.0988 27.1457 58.0293C28.2152 54.0258 31.3371 50.8895 35.2539 49.8777C36.757 49.473 39.1562 49.473 40.6883 49.8633ZM17.8379 53.332C20.0059 53.8813 22.2461 55.2398 23.5324 56.7863L24.1539 57.5234L23.9949 58.2461C23.8937 58.7086 23.8359 61.2379 23.8359 65.0391V71.1094H13.8488H3.84727L3.93398 66.8746C3.9918 63.2035 4.04961 62.5098 4.30976 61.498C5.35039 57.509 8.48672 54.3582 12.418 53.3465C13.9211 52.9418 16.3203 52.9418 17.8379 53.332ZM63.5242 53.332C67.4844 54.3293 70.6352 57.4801 71.6902 61.498C71.9504 62.5098 72.0082 63.2035 72.066 66.8746L72.1527 71.1094H62.1512H52.1641V65.0391C52.1641 61.2379 52.1063 58.7086 52.0051 58.2461L51.8461 57.5234L52.4676 56.7863C53.7395 55.2687 55.9797 53.8957 58.1043 53.332C59.593 52.9418 61.9922 52.9418 63.5242 53.332Z" fill="#4A4A4A"/>
<path d="M44.3594 59.5614C43.8246 59.7782 43.4922 60.2696 43.4922 60.8911C43.4922 61.9028 44.2871 62.5676 45.2699 62.3797C46.5707 62.134 46.8887 60.3708 45.7469 59.677C45.2555 59.3735 44.9086 59.3446 44.3594 59.5614Z" fill="#4A4A4A"/>
</svg>

<svg xmlns="http://www.w3.org/2000/svg" width="76" height="74" fill="none"><path fill="#4A4A4A" d="M36.93.376c-.375.39-.375.404-.375 2.616 0 2.153.014 2.24.347 2.572.419.405.953.579 1.474.449.202-.058.535-.26.722-.449.333-.332.347-.419.347-2.572 0-2.212 0-2.226-.376-2.616C38.767.072 38.55 0 38 0c-.55 0-.766.072-1.07.376M24.313 4.004c-.173.028-.477.23-.68.433-.288.29-.375.52-.375 1.026v.665l2.833 2.847c2.037 2.053 2.962 2.877 3.266 2.934.665.13 1.387-.245 1.648-.867.404-.954.23-1.214-2.457-3.931-1.359-1.388-2.63-2.63-2.833-2.76-.42-.304-.94-.434-1.402-.347M50.863 4.003c-.549.102-5.868 5.478-5.998 6.056-.144.694.246 1.475.853 1.72.94.39 1.156.246 4.191-2.804l2.833-2.847v-.665c0-.52-.086-.737-.376-1.04-.216-.203-.462-.376-.578-.376-.1 0-.26-.03-.375-.058-.102-.029-.347-.014-.55.014M37.046 8.296c-.607.275-.838.622-2.211 3.368-.91 1.835-1.243 2.37-1.489 2.428-.188.029-1.3.202-2.5.361-1.186.174-2.4.376-2.703.448-.65.174-1.373.954-1.503 1.662-.188 1.012.087 1.446 2.298 3.642l2.081 2.082-.404 2.327c-.492 2.79-.535 3.642-.217 4.263.433.839 1.532 1.287 2.5 1.012.275-.072 1.546-.694 2.804-1.359L38 27.316l2.313 1.229c1.286.68 2.587 1.286 2.905 1.358.982.217 1.965-.202 2.384-1.026.318-.621.275-1.474-.216-4.263l-.405-2.327 2.081-2.082c2.211-2.196 2.486-2.63 2.298-3.642-.13-.708-.853-1.488-1.503-1.662-.303-.087-1.547-.274-2.775-.448-1.229-.173-2.356-.347-2.5-.405-.16-.072-.824-1.185-1.59-2.702-.838-1.62-1.474-2.689-1.72-2.862-.491-.361-1.633-.463-2.226-.188m2.038 6.056c.607 1.228 1.156 2.139 1.373 2.298.246.173 1.142.361 2.645.578l2.27.332-1.576 1.59c-.867.867-1.648 1.735-1.735 1.908-.23.448-.202 1.026.174 3.223l.332 1.966-2.067-1.055c-1.228-.622-2.24-1.055-2.5-1.055s-1.272.433-2.5 1.055l-2.067 1.055.332-1.966c.39-2.283.405-2.775.13-3.295-.115-.217-.896-1.07-1.734-1.908l-1.532-1.517 2.153-.304c2.949-.434 2.934-.42 4.177-2.949.535-1.098.998-2.008 1.041-2.008s.535.925 1.084 2.052M35.688 31.74c-3.065.794-5.652 3.41-6.432 6.488-.275 1.113-.275 3.383 0 4.481.376 1.43 1.2 2.92 2.197 3.96.491.52.881.954.867.969-.014.014-.39.202-.824.419-2.052 1.04-4.076 2.847-5.348 4.77-.39.62-.722 1.184-.722 1.242 0 .072-.492-.289-1.099-.78-.607-.506-1.618-1.2-2.269-1.547-.65-.347-1.214-.636-1.228-.665-.03-.014.217-.289.563-.592.81-.723 1.894-2.414 2.298-3.541.449-1.258.564-3.86.232-5.175-.795-3.18-3.368-5.78-6.519-6.576-1.098-.274-3.382-.274-4.48 0-3.122.795-5.71 3.382-6.504 6.504-.275 1.113-.275 3.382 0 4.48.376 1.432 1.2 2.92 2.197 3.96.491.521.881.955.867.97-.014.014-.39.202-.824.418-3.396 1.706-5.983 4.842-7.183 8.701l-.39 1.272-.058 5.868-.043 5.853.39.39.39.391h72.468l.39-.39.39-.39-.043-5.854-.058-5.868-.39-1.272c-1.2-3.859-3.787-6.995-7.183-8.7-.434-.217-.81-.405-.824-.42s.376-.448.867-.968c.998-1.04 1.821-2.53 2.197-3.96.275-1.099.275-3.368 0-4.48-.795-3.123-3.382-5.71-6.504-6.505-1.098-.274-3.382-.274-4.48 0-3.151.795-5.724 3.397-6.519 6.577-.332 1.315-.216 3.916.232 5.174.404 1.127 1.488 2.818 2.298 3.54.346.304.592.579.563.593-.014.03-.578.318-1.228.665s-1.662 1.04-2.27 1.547c-.606.491-1.098.852-1.098.78 0-.058-.332-.621-.722-1.243-1.272-1.922-3.296-3.729-5.348-4.77-.434-.216-.81-.404-.824-.418-.014-.015.376-.448.867-.969.998-1.04 1.821-2.53 2.197-3.96.275-1.099.275-3.368 0-4.48-.795-3.122-3.382-5.71-6.504-6.504-1.084-.275-3.483-.275-4.553.014m4.783 3.323c1.229.593 2.342 1.706 2.935 2.934.419.882.447 1.07.447 2.472s-.028 1.59-.447 2.471c-.593 1.229-1.706 2.342-2.934 2.934-.882.42-1.07.448-2.472.448s-1.59-.029-2.471-.448c-1.229-.592-2.342-1.705-2.935-2.934-.419-.881-.447-1.07-.447-2.471s.028-1.59.447-2.472c.506-1.07 1.634-2.283 2.559-2.746 1.185-.607 1.59-.708 2.992-.665 1.2.03 1.488.087 2.326.477m-22.835 3.469c1.228.593 2.341 1.706 2.934 2.934.419.882.448 1.07.448 2.471 0 1.403-.03 1.59-.448 2.472-.593 1.229-1.706 2.341-2.934 2.934-.882.42-1.07.448-2.472.448s-1.59-.029-2.471-.448c-1.229-.593-2.342-1.706-2.934-2.934-.42-.882-.448-1.07-.448-2.471 0-1.403.028-1.59.448-2.472.505-1.07 1.633-2.284 2.558-2.746 1.185-.607 1.59-.708 2.992-.665 1.2.029 1.488.087 2.327.477m45.671 0c1.229.593 2.342 1.706 2.934 2.934.42.882.448 1.07.448 2.471 0 1.403-.028 1.59-.448 2.472-.592 1.229-1.705 2.341-2.934 2.934-.881.42-1.07.448-2.471.448s-1.59-.029-2.471-.448c-1.23-.593-2.342-1.706-2.934-2.934-.42-.882-.449-1.07-.449-2.471 0-1.403.03-1.59.449-2.472.505-1.07 1.633-2.284 2.558-2.746 1.185-.607 1.59-.708 2.992-.665 1.2.029 1.488.087 2.326.477M40.688 49.863c3.96.998 7.097 4.134 8.166 8.166.29 1.07.318 1.605.39 7.111l.058 5.97h-2.76l-.044-2.516c-.043-2.297-.072-2.558-.346-2.933-.564-.752-1.648-.795-2.313-.087-.347.361-.347.433-.347 2.948v2.587H26.698l.058-5.969c.072-5.506.1-6.041.39-7.11 1.07-4.004 4.191-7.14 8.108-8.152 1.503-.405 3.902-.405 5.434-.015m-22.85 3.469c2.168.55 4.408 1.908 5.694 3.454l.622.737-.16.723c-.1.463-.158 2.992-.158 6.793v6.07H3.847l.087-4.234c.058-3.672.116-4.365.376-5.377 1.04-3.989 4.177-7.14 8.108-8.151 1.503-.405 3.902-.405 5.42-.015m45.686 0c3.96.997 7.111 4.148 8.166 8.166.26 1.012.318 1.706.376 5.377l.087 4.234H52.164v-6.07c0-3.801-.058-6.33-.159-6.793l-.159-.723.622-.737c1.271-1.517 3.512-2.89 5.636-3.454 1.489-.39 3.888-.39 5.42 0"/><path fill="#4A4A4A" d="M44.36 59.561c-.535.217-.868.709-.868 1.33 0 1.012.795 1.677 1.778 1.489 1.3-.246 1.619-2.01.477-2.703-.492-.303-.838-.332-1.388-.116"/></svg>
